svgs/sharp-light/briefcase-blank.svg

<svg xmlns="http://www.w3.org/2000/svg" viewBox="0 0 512 512"><!--! Font Awesome Pro 6.6.0 by @fontawesome - https://fontawesome.com License - https://fontawesome.com/license (Commercial License) Copyright 2024 Fonticons, Inc. --><path d="M144 0L128 0l0 16 0 80L32 96 0 96l0 32L0 448l0 32 32 0 448 0 32 0 0-32 0-320 0-32-32 0-96 0 0-80 0-16L368 0 144 0zM352 96L160 96l0-64 192 0 0 64zM144 128l224 0 112 0 0 320L32 448l0-320 112 0z"/></svg>

<svg xmlns="http://www.w3.org/2000/svg" viewBox="0 0 512 512"><!--! Font Awesome Pro 6.5.2 by @fontawesome - https://fontawesome.com License - https://fontawesome.com/license (Commercial License) Copyright 2024 Fonticons, Inc. --><path d="M144 0H128V16 96H32 0v32V448v32H32 480h32V448 128 96H480 384V16 0H368 144zM352 96H160V32H352V96zM144 128H368 480V448H32V128H144z"/></svg>
